public/library/zora-text-dark.svg

<svg width="318" height="123" viewBox="0 0 318 123" fill="none" xmlns="http://www.w3.org/2000/svg">
<g clip-path="url(#clip0_1205_12)">
<path d="M10 111.292V93.0952L52.713 28.5485H14.8029V11.6995H74.3345V27.3297L29.8353 94.4514H76.0864V111.3H10V111.292Z" fill="white"/>
<path d="M74.8131 62.1094C74.8131 50.2472 76.565 40.4708 80.0518 32.7973C83.5471 25.1238 88.1107 19.3988 93.7511 15.6478C99.3914 11.8798 106.22 10 114.253 10C125.893 10 135.37 14.4633 142.694 23.3814C150.018 32.3081 153.684 45.0114 153.684 61.5C153.684 77.9886 149.804 91.1897 142.045 100.563C135.233 108.854 125.987 112.991 114.304 112.991C102.622 112.991 93.2468 108.897 86.4357 100.7C78.6844 91.3271 74.8045 78.4607 74.8131 62.1094ZM91.7257 61.4313C91.7257 72.8901 93.8963 81.482 98.2292 87.2157C102.562 92.9493 107.937 95.8162 114.356 95.8162C120.765 95.8162 126.166 92.9751 130.414 87.2929C134.661 81.6108 136.78 72.8815 136.78 61.0966C136.78 49.3202 134.712 41.0116 130.576 35.4839C126.448 29.9648 121.03 27.1924 114.347 27.1924C107.664 27.1924 102.22 29.9734 98.0241 35.5526C93.8194 41.1146 91.7257 49.7408 91.7257 61.4313Z" fill="white"/>
<path d="M158.291 111.292V11.6995H192.851C201.687 11.6995 208.003 12.5921 211.789 14.3775C215.583 16.1714 218.694 19.27 221.121 23.6818C223.557 28.0936 224.77 33.3895 224.77 39.5438C224.77 47.3375 222.916 53.6033 219.19 58.367C215.481 63.1308 210.199 66.1178 203.337 67.3366C206.858 69.8687 209.763 72.6497 212.062 75.6625C214.361 78.6752 217.498 84.0741 221.463 91.8678L231.342 111.3H211.755L199.867 89.6275C195.594 81.791 192.688 76.8899 191.15 74.9157C189.612 72.9415 187.988 71.5854 186.279 70.8386C184.561 70.0919 181.818 69.7142 178.023 69.7142H174.639V111.292H158.291ZM174.665 53.8179H186.843C194.287 53.8179 199.021 53.4917 201.046 52.8308C203.08 52.1699 204.721 50.848 205.986 48.8567C207.242 46.8654 207.875 44.2217 207.875 40.9085C207.875 37.5954 207.242 35.192 205.986 33.2694C204.721 31.3467 203.012 30.0249 200.841 29.2953C199.303 28.7975 194.868 28.5485 187.518 28.5485H174.665V53.8179Z" fill="white"/>
<path d="M308 111.292H290.207L283.088 88.7349H250.537L243.811 111.292H226.36L258.023 11.6995H275.414L308 111.292ZM277.798 71.8858L266.569 34.926L255.553 71.8858H277.798Z" fill="white"/>
</g>
<defs>
<clipPath id="clip0_1205_12">
<rect width="298" height="103" fill="white" transform="translate(10 10)"/>
</clipPath>
</defs>
</svg>

<svg xmlns="http://www.w3.org/2000/svg" width="318" height="123" fill="none" viewBox="0 0 318 123"><g fill="#fff" clip-path="url(#a)"><path d="M10 111.292V93.095L52.713 28.55h-37.91v-16.85h59.532v15.63l-44.5 67.122h46.251V111.3H10z"/><path d="M74.813 62.11c0-11.863 1.752-21.64 5.239-29.313 3.495-7.673 8.059-13.398 13.7-17.15C99.391 11.88 106.22 10 114.252 10c11.64 0 21.117 4.463 28.441 13.381 7.324 8.927 10.99 21.63 10.99 38.119s-3.88 29.69-11.639 39.063c-6.812 8.291-16.058 12.428-27.741 12.428s-21.057-4.094-27.868-12.291c-7.752-9.373-11.632-22.24-11.623-38.59m16.913-.679c0 11.46 2.17 20.051 6.503 25.785q6.499 8.6 16.127 8.6c6.409 0 11.81-2.84 16.058-8.523s6.366-14.412 6.366-26.196c0-11.777-2.068-20.085-6.204-25.613-4.128-5.52-9.546-8.292-16.229-8.292s-12.127 2.781-16.323 8.36c-4.205 5.563-6.298 14.189-6.298 25.88M158.291 111.292V11.7h34.56c8.836 0 15.152.892 18.938 2.678q5.691 2.688 9.332 9.304c2.436 4.412 3.649 9.708 3.649 15.862 0 7.794-1.854 14.06-5.58 18.823-3.709 4.764-8.991 7.75-15.853 8.97 3.521 2.532 6.426 5.313 8.725 8.325 2.299 3.013 5.436 8.412 9.401 16.206l9.879 19.432h-19.587l-11.888-21.672c-4.273-7.837-7.179-12.738-8.717-14.712s-3.162-3.33-4.871-4.077c-1.718-.747-4.461-1.125-8.256-1.125h-3.384v41.578zm16.374-57.474h12.178c7.444 0 12.178-.326 14.203-.987 2.034-.661 3.675-1.983 4.94-3.974 1.256-1.992 1.889-4.635 1.889-7.949s-.633-5.716-1.889-7.639c-1.265-1.922-2.974-3.244-5.145-3.974-1.538-.498-5.973-.747-13.323-.747h-12.853z"/><path d="M308 111.292h-17.793l-7.119-22.557h-32.551l-6.726 22.557H226.36L258.023 11.7h17.391zm-30.202-39.406-11.229-36.96-11.016 36.96z"/></g><defs><clipPath id="a"><path fill="#fff" d="M10 10h298v103H10z"/></clipPath></defs></svg>
